src/assets/img/close_window.svg

<svg viewBox="0 0 24 24" xmlns="http://www.w3.org/2000/svg"><path d="m5 3c-1.105 0-2 .895-2 2v14c0 1.105.895 2 2 2h14c1.105 0 2-.895 2-2v-14c0-1.105-.895-2-2-2zm3 4c.25575 0 .5115313.0974688.7070312.2929688l3.2929688 3.2929692 3.292969-3.2929692c.09775-.09775.209734-.1718282.330078-.2207032.361031-.146625.790734-.0725469 1.083984.2207032.391.391.391 1.0230624 0 1.4140624l-3.292969 3.2929688 3.292969 3.292969c.29325.29325.367328.722953.220703 1.083984-.048875.120344-.122953.232328-.220703.330078-.0975.0975-.209703.169875-.330078.21875s-.248953.074219-.376953.074219c-.256 0-.512031-.097969-.707031-.292969l-3.292969-3.292969-3.2929688 3.292969c-.195.195-.4510312.292969-.7070312.292969s-.5120312-.097969-.7070312-.292969c-.3910001-.391-.3910001-1.023062 0-1.414062l3.2929692-3.292969-3.2929692-3.2929688c-.3910001-.391-.3910001-1.0230625 0-1.4140624.1955-.1955001.4512812-.2929688.7070312-.2929688z" fill="#fff"/></svg>

<?xml version="1.0" encoding="utf-8"?>
<svg xmlns="http://www.w3.org/2000/svg" viewBox="0 0 24 24" fill="#ffffff"><path d="M 5 3 C 3.895 3 3 3.895 3 5 L 3 19 C 3 20.105 3.895 21 5 21 L 19 21 C 20.105 21 21 20.105 21 19 L 21 5 C 21 3.895 20.105 3 19 3 L 5 3 z M 8 7 C 8.25575 7 8.5115313 7.0974688 8.7070312 7.2929688 L 12 10.585938 L 15.292969 7.2929688 C 15.390719 7.1952188 15.502703 7.1211406 15.623047 7.0722656 C 15.984078 6.9256406 16.413781 6.9997187 16.707031 7.2929688 C 17.098031 7.6839688 17.098031 8.3160312 16.707031 8.7070312 L 13.414062 12 L 16.707031 15.292969 C 17.000281 15.586219 17.074359 16.015922 16.927734 16.376953 C 16.878859 16.497297 16.804781 16.609281 16.707031 16.707031 C 16.609531 16.804531 16.497328 16.876906 16.376953 16.925781 C 16.256578 16.974656 16.128 17 16 17 C 15.744 17 15.487969 16.902031 15.292969 16.707031 L 12 13.414062 L 8.7070312 16.707031 C 8.5120312 16.902031 8.256 17 8 17 C 7.744 17 7.4879688 16.902031 7.2929688 16.707031 C 6.9019687 16.316031 6.9019687 15.683969 7.2929688 15.292969 L 10.585938 12 L 7.2929688 8.7070312 C 6.9019687 8.3160312 6.9019687 7.6839687 7.2929688 7.2929688 C 7.4884688 7.0974687 7.74425 7 8 7 z" fill="#ffffff"/></svg>
